src/topics/icons/glint.svg

<svg height="133" preserveAspectRatio="xMidYMid" viewBox="0 0 512 133" width="512" xmlns="http://www.w3.org/2000/svg"><path d="m169.19055 104.133614c0 21.254487 17.980881 25.787634 17.980881 25.787634h41.100725v-25.787634z" fill="#6bbfa4"/><path d="m247.309973 3.23967251h25.355477v127.22850649h-25.355477z" fill="#73be88"/><path d="m385.422222 130.468179-64.522978-84.9710406-.090823 84.9710406h-25.354479v-127.22850649h23.718674l64.614799 84.97004289v-84.97004289h25.445302v127.22850649z" fill="#a3cc69"/><path d="m486.734347 28.9354854c0-21.25448735-17.980881-25.78763355-17.980881-25.78763355h-41.099727v25.78763355z" fill="#ece23c"/><path d="m169.19055 104.133614-.021957.679673v-101.66942735h-25.012149v104.12263535c0 12.514558 8.992437 22.657747 25.012149 22.657747l15.813115-.002994h2.189723s-17.980881-4.533147-17.980881-25.787634zm317.543797-75.1981286.022955-.6796725v101.6684291h25.01115v-104.1216377c0-12.5145575-8.992436-22.65874465-25.01115-22.65874465l-15.814113.0039922h-2.189723s17.980881 4.5331462 17.980881 25.78763355zm-371.319766-8.5203587-18.2663237 17.9020351c-7.2698012-8.3596725-17.6305653-13.3579103-30.7170058-13.3579103-23.2645614 0-40.1675478 17.0846315-40.1675478 41.8941754 0 25.9004133 17.6305653 42.2584641 39.7134347 42.2584641 20.8113528 0 32.806924-9.9056532 36.1693566-28.0811542h-32.3518127v-21.1746432h58.5246937c.272468 2.4532085.363291 4.7257699.363291 7.1789785 0 38.5327409-26.081061 65.7056689-62.1605929 65.7056689-35.2601326 0-66.5220741-24.810542-66.5220741-65.8873141 0-38.4409201 28.081154-65.9771384 67.1588304-65.9771384 20.3562417 0 36.8959376 7.17897856 48.2557506 19.5388382z" fill="#72736d"/></svg>

<?xml version="1.0" encoding="UTF-8" standalone="no"?>
<svg width="512px" height="133px" viewBox="0 0 512 133" version="1.1" xmlns="http://www.w3.org/2000/svg" xmlns:xlink="http://www.w3.org/1999/xlink" preserveAspectRatio="xMidYMid">
	<g>
		<path d="M169.19055,104.133614 C169.19055,125.388101 187.171431,129.921248 187.171431,129.921248 L228.272156,129.921248 L228.272156,104.133614 L169.19055,104.133614" fill="#6BBFA4"></path>
		<path d="M247.309973,3.23967251 L272.66545,3.23967251 L272.66545,130.468179 L247.309973,130.468179 L247.309973,3.23967251 Z" fill="#73BE88"></path>
		<path d="M385.422222,130.468179 L320.899244,45.4971384 L320.808421,130.468179 L295.453942,130.468179 L295.453942,3.23967251 L319.172616,3.23967251 L383.787415,88.2097154 L383.787415,3.23967251 L409.232717,3.23967251 L409.232717,130.468179 L385.422222,130.468179" fill="#A3CC69"></path>
		<path d="M486.734347,28.9354854 C486.734347,7.68099805 468.753466,3.14785185 468.753466,3.14785185 L427.653739,3.14785185 L427.653739,28.9354854 L486.734347,28.9354854" fill="#ECE23C"></path>
		<path d="M169.19055,104.133614 L169.168593,104.813287 L169.168593,3.14385965 L144.156444,3.14385965 L144.156444,107.266495 C144.156444,119.781053 153.148881,129.924242 169.168593,129.924242 L184.981708,129.921248 L187.171431,129.921248 C187.171431,129.921248 169.19055,125.388101 169.19055,104.133614 L169.19055,104.133614 Z M486.734347,28.9354854 L486.757302,28.2558129 L486.757302,129.924242 L511.768452,129.924242 L511.768452,25.8026043 C511.768452,13.2880468 502.776016,3.14385965 486.757302,3.14385965 L470.943189,3.14785185 L468.753466,3.14785185 C468.753466,3.14785185 486.734347,7.68099805 486.734347,28.9354854 L486.734347,28.9354854 Z M115.414581,20.4151267 L97.1482573,38.3171618 C89.8784561,29.9574893 79.517692,24.9592515 66.4312515,24.9592515 C43.1666901,24.9592515 26.2637037,42.043883 26.2637037,66.8534269 C26.2637037,92.7538402 43.894269,109.111891 65.9771384,109.111891 C86.7884912,109.111891 98.7840624,99.2062378 102.146495,81.0307368 L69.7946823,81.0307368 L69.7946823,59.8560936 L128.319376,59.8560936 C128.591844,62.3093021 128.682667,64.5818635 128.682667,67.0350721 C128.682667,105.567813 102.601606,132.740741 66.5220741,132.740741 C31.2619415,132.740741 0,107.930199 0,66.8534269 C0,28.4125068 28.081154,0.876288499 67.1588304,0.876288499 C87.5150721,0.876288499 104.054768,8.05526706 115.414581,20.4151267 L115.414581,20.4151267 Z" fill="#72736D"></path>
	</g>
</svg>
